img/button-login.svg

<svg width="185" height="66" viewBox="0 0 185 66" fill="none" xmlns="http://www.w3.org/2000/svg">
<path d="M48.9999 66C44.1569 66 39.984 63.1311 38.088 59H25.9999C11.6405 59 -0.00012207 47.3594 -0.00012207 33C-0.00012207 18.6406 11.6405 7 25.9999 7H38.088C39.984 2.86894 44.1569 0 48.9999 0H136C140.843 0 145.016 2.86894 146.912 7H159C173.359 7 185 18.6406 185 33C185 47.3594 173.359 59 159 59H146.912C145.016 63.1311 140.843 66 136 66H48.9999Z" fill="#7AB462"/>
<path fill-rule="evenodd" clip-rule="evenodd" d="M41.2946 54L42.6322 56.9144C43.7433 59.3353 46.1824 61 48.9999 61H136C138.817 61 141.256 59.3353 142.368 56.9144L143.705 54H159C170.598 54 180 44.598 180 33C180 21.402 170.598 12 159 12H143.705L142.368 9.08564C141.256 6.66469 138.817 5 136 5H48.9999C46.1824 5 43.7433 6.66469 42.6322 9.08565L41.2946 12H25.9999C14.4019 12 4.99988 21.402 4.99988 33C4.99988 44.598 14.4019 54 25.9999 54H41.2946ZM38.088 7H25.9999C11.6405 7 -0.00012207 18.6406 -0.00012207 33C-0.00012207 47.3594 11.6405 59 25.9999 59H38.088C39.984 63.1311 44.1569 66 48.9999 66H136C140.843 66 145.016 63.1311 146.912 59H159C173.359 59 185 47.3594 185 33C185 18.6406 173.359 7 159 7H146.912C145.016 2.86894 140.843 0 136 0H48.9999C44.1569 0 39.984 2.86894 38.088 7Z" fill="#FFB8C6"/>
</svg>

<svg width="185" height="66" fill="none" xmlns="http://www.w3.org/2000/svg"><path d="M49 66c-4.843 0-9.016-2.869-10.912-7H26C11.64 59 0 47.36 0 33S11.64 7 26 7h12.088C39.984 2.869 44.157 0 49 0h87c4.843 0 9.016 2.869 10.912 7H159c14.359 0 26 11.64 26 26s-11.641 26-26 26h-12.088c-1.896 4.131-6.069 7-10.912 7H49z" fill="#7AB462"/><path fill-rule="evenodd" clip-rule="evenodd" d="M41.295 54l1.337 2.914A7.002 7.002 0 0049 61h87a7.004 7.004 0 006.368-4.086L143.705 54H159c11.598 0 21-9.402 21-21s-9.402-21-21-21h-15.295l-1.337-2.914A7.004 7.004 0 00136 5H49a7.002 7.002 0 00-6.368 4.086L41.295 12H26C14.402 12 5 21.402 5 33s9.402 21 21 21h15.295zM38.088 7H26C11.64 7 0 18.64 0 33s11.64 26 26 26h12.088c1.896 4.131 6.069 7 10.912 7h87c4.843 0 9.016-2.869 10.912-7H159c14.359 0 26-11.64 26-26S173.359 7 159 7h-12.088c-1.896-4.131-6.069-7-10.912-7H49c-4.843 0-9.016 2.869-10.912 7z" fill="#FFB8C6"/></svg>
